X:58
T:Kid on the Mountain
M:9/8
L:1/8
S:Edor (x2)
R:Slip Jig
K:Em
"Em"~E3 ~F3 G2F | "C"~E3 BcA "D"BGE | "Em"~E3 ~F3 G2A | "D"BAG FAG FED :
|!
|:"G"BGB "D"AGF "G"G2D | "G"GAB dge dBA | "G"BGB "D"AGF "G"G2A | "Bm"BAG
FAG FED :|!
|:"Em"gfg eBe e2f | g3 "C"efg "D"afd | "Em"gfg eBe e2g/2a/2 | bag "C"fag
"D"fed :|!
|:"Em"eBe e2f g2f | eBe "C"efg "D"afd | "Em"eBe e2f g2a | bag "C"fag "D"
fed :|!
|:"G"edB "D"dBA "G"G2D | "Bm"GAB dge dBA | "G"edB "D"dBA "G"G2A | "Bm"BA
G FAG FED :|!
